X: 143
U:~=!turn!
U:t=!tenuto!
M:C
L:1/8
K:F
d<f c>A B<GG>B | (tA>.c) (=B/c/d) c2 (tA>.F) | (D/E/F) E<c A<F F|| B | (tA>.f) (e/f/g) f2 (tc>.f) | (3agf (3efg (3fed (3cBA |
(tB>.g) ^f/g/a g2 (td>.g) | (3bag (3^fga (3g=fe (3dcB | (tA>.f) (e/f/g) {/e}f2 (tc>.f) | (3agf (3efg (3fed (3cBA | (Bg) Tg2{^fg} (Af) f2{ef} | {/B}bagf edc |]


